app/images/ignore/icon-timepicker-colon.svg

<svg width="4" height="10" viewBox="0 0 4 10" xmlns="http://www.w3.org/2000/svg" xmlns:sketch="http://www.bohemiancoding.com/sketch/ns"><title>icon-timepicker-colon</title><desc>Created with Sketch.</desc><path d="M2 4c1.105 0 2-.895 2-2s-.895-2-2-2-2 .895-2 2 .895 2 2 2zm0 6c1.105 0 2-.895 2-2s-.895-2-2-2-2 .895-2 2 .895 2 2 2z" sketch:type="MSShapeGroup" fill="#D8D8D8"/></svg>

<?xml version="1.0" encoding="UTF-8" standalone="no"?>
<svg width="4px" height="10px" viewBox="0 0 4 10" version="1.1" xmlns="http://www.w3.org/2000/svg" xmlns:xlink="http://www.w3.org/1999/xlink" xmlns:sketch="http://www.bohemiancoding.com/sketch/ns">
    <!-- Generator: Sketch 3.3.2 (12043) - http://www.bohemiancoding.com/sketch -->
    <title>icon-timepicker-colon</title>
    <desc>Created with Sketch.</desc>
    <defs></defs>
    <g id="General" stroke="none" stroke-width="1" fill="none" fill-rule="evenodd" sketch:type="MSPage">
        <g id="icon-timepicker-colon" sketch:type="MSArtboardGroup" transform="translate(-62.000000, -59.000000)" fill="#D8D8D8">
            <g sketch:type="MSLayerGroup" transform="translate(62.000000, 59.000000)" id="Shape">
                <path d="M2,4 C3.105,4 4,3.105 4,2 C4,0.895 3.105,0 2,0 C0.895,0 0,0.895 0,2 C0,3.105 0.895,4 2,4 L2,4 Z M2,10 C3.105,10 4,9.105 4,8 C4,6.895 3.105,6 2,6 C0.895,6 0,6.895 0,8 C0,9.105 0.895,10 2,10 L2,10 Z" sketch:type="MSShapeGroup"></path>
            </g>
        </g>
    </g>
</svg>
